Origami/32x32/apps/desktop-environment-unity.svg

<svg width="32" height="32" version="1" xmlns="http://www.w3.org/2000/svg">
 <circle cx="16" cy="17" r="14" style="opacity:.2"/>
 <circle cx="16" cy="16" r="14" style="fill:#a43b84"/>
 <path d="m10 10v8.4s0 5.6 4.5 5.6h7.5v-14h-3v10.5h-3.75c-2.25 0-2.25-2.8-2.25-2.8v-7.7z" style="opacity:.2"/>
 <path d="m10 9v8.4s0 5.6 4.5 5.6h7.5v-14h-3v10.5h-3.75c-2.25 0-2.25-2.8-2.25-2.8v-7.7z" style="fill:#ffffff"/>
 <path d="M 16 2 A 14 14 0 0 0 2 16 A 14 14 0 0 0 2.0215 16.586 A 14 14 0 0 1 16 3 A 14 14 0 0 1 29.979 16.414 A 14 14 0 0 0 30 16 A 14 14 0 0 0 16 2 z" style="fill:#ffffff;opacity:.1"/>
</svg>

<svg xmlns="http://www.w3.org/2000/svg" width="32" height="32" version="1">
 <circle style="opacity:0.2" cx="16" cy="17" r="14"/>
 <circle style="fill:#a43b84" cx="16" cy="16" r="14"/>
 <path style="opacity:0.2" d="M 10,10 V 18.4 C 10,18.4 10,24 14.5,24 H 22 V 10 H 19 V 20.5 H 15.25 C 13,20.5 13,17.7 13,17.7 V 10 Z"/>
 <path style="fill:#ffffff" d="M 10,9 V 17.4 C 10,17.4 10,23 14.5,23 H 22 V 9 H 19 V 19.5 H 15.25 C 13,19.5 13,16.7 13,16.7 V 9 Z"/>
 <path style="opacity:0.1;fill:#ffffff" d="M 16 2 A 14 14 0 0 0 2 16 A 14 14 0 0 0 2.0215 16.586 A 14 14 0 0 1 16 3 A 14 14 0 0 1 29.979 16.414 A 14 14 0 0 0 30 16 A 14 14 0 0 0 16 2 z"/>
</svg>
